X:44
T:Maguire's Kick
B:Terry "Cuz" Teahan "Sliabh Luachra on Parade" 1980
Z:Patrick Cavanagh
M:12/8
L:1/8
R:Slide
K:D
A | F2E EDE F2D D2E | F2E EFA d2e fdA | 
F2E EDE F2D D2F | AFE EFA B3 B2 :| 
F | ABd e2f d2B BAF | ABd e2f d2F B3 | 
ABd e2f d2B BAF | AFE EFA B3 B2 :|| 

